new_frontend/public/assets/next-page-logo.svg

<svg width="78" height="19" viewBox="0 0 78 19" fill="none" xmlns="http://www.w3.org/2000/svg">
<path d="M11.5 14.177H9.68L2.36 3.077V14.177H0.54V0.217002H2.36L9.68 11.297V0.217002H11.5V14.177ZM23.4025 8.277C23.4025 8.62367 23.3825 8.99033 23.3425 9.377H14.5825C14.6492 10.457 15.0158 11.3037 15.6825 11.917C16.3625 12.517 17.1825 12.817 18.1425 12.817C18.9292 12.817 19.5825 12.637 20.1025 12.277C20.6358 11.9037 21.0092 11.4103 21.2225 10.797H23.1825C22.8892 11.8503 22.3025 12.7103 21.4225 13.377C20.5425 14.0303 19.4492 14.357 18.1425 14.357C17.1025 14.357 16.1692 14.1237 15.3425 13.657C14.5292 13.1903 13.8892 12.5303 13.4225 11.677C12.9558 10.8103 12.7225 9.81034 12.7225 8.677C12.7225 7.54367 12.9492 6.55033 13.4025 5.697C13.8558 4.84367 14.4892 4.19033 15.3025 3.737C16.1292 3.27033 17.0758 3.037 18.1425 3.037C19.1825 3.037 20.1025 3.26367 20.9025 3.717C21.7025 4.17033 22.3158 4.797 22.7425 5.597C23.1825 6.38367 23.4025 7.277 23.4025 8.277ZM21.5225 7.897C21.5225 7.20367 21.3692 6.61033 21.0625 6.117C20.7558 5.61033 20.3358 5.23034 19.8025 4.977C19.2825 4.71033 18.7025 4.577 18.0625 4.577C17.1425 4.577 16.3558 4.87033 15.7025 5.457C15.0625 6.04367 14.6958 6.857 14.6025 7.897H21.5225ZM30.3248 14.177L27.7248 10.097L25.2248 14.177H23.3248L26.8648 8.737L23.3248 3.217H25.3848L27.9848 7.277L30.4648 3.217H32.3648L28.8448 8.637L32.3848 14.177H30.3248ZM35.1952 4.717V11.177C35.1952 11.7103 35.3085 12.0903 35.5352 12.317C35.7618 12.5303 36.1552 12.637 36.7152 12.637H38.0552V14.177H36.4152C35.4018 14.177 34.6418 13.9437 34.1352 13.477C33.6285 13.0103 33.3752 12.2437 33.3752 11.177V4.717H31.9552V3.217H33.3752V0.457001H35.1952V3.217H38.0552V4.717H35.1952ZM45.7123 8.497L45.8123 8.097H46.7123C47.699 8.097 48.5323 7.96367 49.2123 7.697C49.8923 7.417 50.439 7.03033 50.8523 6.537C51.2657 6.04367 51.5657 5.477 51.7523 4.837C51.939 4.18367 52.0323 3.48367 52.0323 2.737C52.0323 1.95033 51.8323 1.37033 51.4323 0.997001C51.0457 0.610335 50.399 0.417001 49.4923 0.417001C49.1057 0.417001 48.7923 0.470335 48.5523 0.577002C48.3257 0.670335 48.139 0.843668 47.9923 1.097C47.859 1.337 47.7323 1.68367 47.6123 2.137L44.9723 12.057C44.8657 12.4703 44.8057 12.8037 44.7923 13.057C44.779 13.297 44.8657 13.477 45.0523 13.597C45.2523 13.7037 45.619 13.7637 46.1523 13.777L46.0723 14.177C45.7657 14.1503 45.3923 14.137 44.9523 14.137C44.5123 14.1237 44.059 14.117 43.5923 14.117C43.0723 14.117 42.579 14.1237 42.1123 14.137C41.6457 14.137 41.2723 14.1503 40.9923 14.177L41.0723 13.777C41.5257 13.7503 41.879 13.697 42.1323 13.617C42.3857 13.537 42.5857 13.377 42.7323 13.137C42.879 12.897 43.0123 12.537 43.1323 12.057L45.7723 2.137C45.8923 1.71033 45.9457 1.377 45.9323 1.137C45.9323 0.883669 45.8323 0.703668 45.6323 0.597002C45.4323 0.477002 45.0857 0.417001 44.5923 0.417001L44.6923 0.0170019C44.959 0.030335 45.3257 0.0436682 45.7923 0.0570014C46.259 0.0703345 46.7123 0.0770011 47.1523 0.0770011C47.6323 0.0770011 48.1123 0.0703345 48.5923 0.0570014C49.0857 0.0436682 49.579 0.0370016 50.0723 0.0370016C51.419 0.0370016 52.419 0.317002 53.0723 0.877002C53.7257 1.42367 54.0523 2.15033 54.0523 3.057C54.0523 4.097 53.7323 5.03034 53.0923 5.857C52.4657 6.67033 51.5857 7.317 50.4523 7.797C49.319 8.26367 48.0057 8.497 46.5123 8.497H45.7123ZM54.6744 13.817C54.9944 13.817 55.361 13.617 55.7744 13.217C56.1877 12.8037 56.6077 12.2503 57.0344 11.557C57.461 10.8637 57.8544 10.077 58.2144 9.197C58.5744 8.317 58.861 7.40367 59.0744 6.457L58.7344 8.617C58.2277 10.0303 57.721 11.1703 57.2144 12.037C56.7077 12.8903 56.1944 13.5103 55.6744 13.897C55.1544 14.2703 54.6277 14.457 54.0944 14.457C53.4677 14.457 52.9944 14.2303 52.6744 13.777C52.3677 13.3237 52.2144 12.7437 52.2144 12.037C52.2144 11.397 52.321 10.7037 52.5344 9.957C52.7477 9.197 53.041 8.44367 53.4144 7.697C53.801 6.95033 54.241 6.27033 54.7344 5.657C55.2277 5.04367 55.761 4.55033 56.3344 4.177C56.921 3.80367 57.5144 3.617 58.1144 3.617C58.581 3.617 58.9344 3.85034 59.1744 4.317C59.4277 4.77033 59.481 5.41033 59.3344 6.237L59.1144 6.357C59.2077 5.65033 59.161 5.08367 58.9744 4.657C58.7877 4.217 58.481 3.997 58.0544 3.997C57.7077 3.997 57.341 4.17034 56.9544 4.517C56.581 4.85033 56.2144 5.31033 55.8544 5.897C55.5077 6.47033 55.1877 7.117 54.8944 7.837C54.6144 8.557 54.3877 9.30367 54.2144 10.077C54.0544 10.837 53.9744 11.5703 53.9744 12.277C53.9744 12.8503 54.0344 13.2503 54.1544 13.477C54.2877 13.7037 54.461 13.817 54.6744 13.817ZM59.7144 3.897C60.0344 3.88367 60.3544 3.857 60.6744 3.817C60.9944 3.777 61.2877 3.71033 61.5544 3.617L59.0544 12.457C59.0277 12.577 58.9877 12.737 58.9344 12.937C58.8944 13.1237 58.8944 13.297 58.9344 13.457C58.9877 13.617 59.1277 13.697 59.3544 13.697C59.621 13.697 59.881 13.5503 60.1344 13.257C60.3877 12.9637 60.641 12.4303 60.8944 11.657L61.1344 10.917H61.5144L61.0144 12.377C60.8277 12.9103 60.601 13.3303 60.3344 13.637C60.081 13.9303 59.8144 14.137 59.5344 14.257C59.2544 14.3903 58.981 14.457 58.7144 14.457C58.1944 14.457 57.8277 14.2837 57.6144 13.937C57.441 13.6303 57.3944 13.277 57.4744 12.877C57.5544 12.4637 57.6477 12.0503 57.7544 11.637L59.7144 3.897ZM65.6231 9.677L66.1231 9.697C65.6431 9.96367 65.1965 10.2103 64.7831 10.437C64.3831 10.6503 64.0565 10.8503 63.8031 11.037C63.5498 11.2237 63.4231 11.4037 63.4231 11.577C63.4231 11.7103 63.5165 11.837 63.7031 11.957C63.8898 12.0637 64.1965 12.1703 64.6231 12.277L66.0831 12.657C66.5098 12.7637 66.8898 12.8903 67.2231 13.037C67.5698 13.1703 67.8431 13.3437 68.0431 13.557C68.2431 13.7703 68.3431 14.0503 68.3431 14.397C68.3431 14.7303 68.2298 15.1037 68.0031 15.517C67.7898 15.9437 67.4498 16.3503 66.9831 16.737C66.5298 17.1237 65.9365 17.4437 65.2031 17.697C64.4698 17.9503 63.5831 18.077 62.5431 18.077C61.8498 18.077 61.2698 18.0103 60.8031 17.877C60.3231 17.757 59.9698 17.5837 59.7431 17.357C59.5031 17.1303 59.3831 16.8703 59.3831 16.577C59.3831 16.3637 59.4431 16.137 59.5631 15.897C59.6831 15.6703 59.8631 15.4437 60.1031 15.217C60.3298 15.0037 60.6231 14.797 60.9831 14.597C61.3298 14.4103 61.7431 14.2503 62.2231 14.117L62.3631 14.417C61.8698 14.6703 61.5298 14.957 61.3431 15.277C61.1565 15.597 61.0631 15.917 61.0631 16.237C61.0631 16.7703 61.2498 17.1503 61.6231 17.377C61.9965 17.617 62.4565 17.737 63.0031 17.737C63.4431 17.737 63.8965 17.6637 64.3631 17.517C64.8298 17.3837 65.2631 17.197 65.6631 16.957C66.0631 16.7303 66.3831 16.4637 66.6231 16.157C66.8631 15.8503 66.9831 15.5303 66.9831 15.197C66.9831 14.997 66.9165 14.8637 66.7831 14.797C66.6631 14.7303 66.4565 14.6637 66.1631 14.597L63.1031 13.817C62.7831 13.737 62.5231 13.6037 62.3231 13.417C62.1231 13.217 62.0231 12.9503 62.0231 12.617C62.0231 12.3503 62.1165 12.077 62.3031 11.797C62.4898 11.517 62.8431 11.2103 63.3631 10.877C63.8831 10.5303 64.6365 10.1303 65.6231 9.677ZM66.6431 3.977C66.2165 3.977 65.8565 4.10367 65.5631 4.357C65.2698 4.597 65.0231 4.91033 64.8231 5.297C64.6365 5.67033 64.4898 6.06367 64.3831 6.477C64.2898 6.89034 64.2231 7.27034 64.1831 7.617C64.1431 7.95034 64.1231 8.197 64.1231 8.357C64.1231 8.78367 64.2165 9.09034 64.4031 9.277C64.6031 9.46367 64.8631 9.557 65.1831 9.557C65.6898 9.557 66.0965 9.40367 66.4031 9.097C66.7231 8.79034 66.9698 8.41034 67.1431 7.957C67.3165 7.50367 67.4298 7.05033 67.4831 6.597C67.5498 6.14367 67.5831 5.76367 67.5831 5.457C67.5831 5.00367 67.5231 4.64367 67.4031 4.377C67.2831 4.11033 67.0298 3.977 66.6431 3.977ZM66.7231 3.617C67.5098 3.617 68.1431 3.797 68.6231 4.157C69.1165 4.50367 69.3631 5.07033 69.3631 5.857C69.3631 6.497 69.1831 7.13033 68.8231 7.757C68.4631 8.38367 67.9565 8.90367 67.3031 9.317C66.6498 9.717 65.8765 9.917 64.9831 9.917C64.2498 9.917 63.6298 9.74367 63.1231 9.397C62.6298 9.037 62.3831 8.48367 62.3831 7.737C62.3831 7.377 62.4565 6.96367 62.6031 6.497C62.7631 6.017 63.0098 5.56367 63.3431 5.137C63.6765 4.697 64.1165 4.337 64.6631 4.057C65.2231 3.76367 65.9098 3.617 66.7231 3.617ZM68.1431 4.657L67.7831 4.517C67.9698 4.06367 68.2898 3.66367 68.7431 3.317C69.1965 2.97033 69.6698 2.797 70.1631 2.797C70.5098 2.797 70.7898 2.897 71.0031 3.097C71.2165 3.28367 71.3231 3.58367 71.3231 3.997C71.3231 4.37033 71.2298 4.64367 71.0431 4.817C70.8565 4.99033 70.6565 5.077 70.4431 5.077C70.2298 5.077 70.0231 5.01033 69.8231 4.877C69.6365 4.73033 69.5231 4.50367 69.4831 4.197C69.4431 3.89034 69.5298 3.497 69.7431 3.017L70.0031 3.077C69.4431 3.29033 69.0431 3.517 68.8031 3.757C68.5631 3.98367 68.3431 4.28367 68.1431 4.657ZM70.7675 9.637C71.5142 9.38367 72.1875 9.137 72.7875 8.897C73.4008 8.64367 73.8875 8.377 74.2475 8.097C74.7275 7.71034 75.1075 7.24367 75.3875 6.697C75.6675 6.15033 75.8075 5.55033 75.8075 4.897C75.8075 4.51033 75.7808 4.26367 75.7275 4.157C75.6742 4.05033 75.5942 3.997 75.4875 3.997C75.1542 3.997 74.7942 4.14367 74.4075 4.437C74.0208 4.73033 73.6408 5.137 73.2675 5.657C72.8942 6.16367 72.5475 6.74367 72.2275 7.397C71.9208 8.05033 71.6742 8.75033 71.4875 9.497C71.3008 10.2303 71.2075 10.9637 71.2075 11.697C71.2075 12.377 71.3342 12.8703 71.5875 13.177C71.8408 13.4703 72.1742 13.617 72.5875 13.617C73.0675 13.617 73.5742 13.4703 74.1075 13.177C74.6408 12.8837 75.1608 12.3637 75.6675 11.617L75.9875 11.777C75.7342 12.217 75.4008 12.6437 74.9875 13.057C74.5742 13.4703 74.1075 13.8103 73.5875 14.077C73.0808 14.3303 72.5408 14.457 71.9675 14.457C71.4342 14.457 70.9675 14.3503 70.5675 14.137C70.1675 13.9237 69.8608 13.6103 69.6475 13.197C69.4342 12.7703 69.3275 12.2503 69.3275 11.637C69.3275 11.0637 69.4342 10.4237 69.6475 9.717C69.8608 8.997 70.1608 8.28367 70.5475 7.577C70.9475 6.857 71.4208 6.197 71.9675 5.597C72.5142 4.997 73.1208 4.517 73.7875 4.157C74.4542 3.797 75.1675 3.617 75.9275 3.617C76.3408 3.617 76.6875 3.73034 76.9675 3.957C77.2608 4.17033 77.4075 4.497 77.4075 4.937C77.4075 5.47033 77.2475 5.97033 76.9275 6.437C76.6208 6.89033 76.2075 7.31034 75.6875 7.697C75.1808 8.07034 74.6275 8.40367 74.0275 8.697C73.4275 8.99034 72.8408 9.24367 72.2675 9.457C71.6942 9.67033 71.1875 9.84367 70.7475 9.977L70.7675 9.637Z" fill="#1B4444"/>
</svg>

<svg width="78" height="19" fill="none" xmlns="http://www.w3.org/2000/svg"><path d="M11.5 14.177H9.68l-7.32-11.1v11.1H.54V.217h1.82l7.32 11.08V.217h1.82v13.96zm11.902-5.9c0 .347-.02.713-.06 1.1h-8.76c.067 1.08.434 1.927 1.1 2.54.68.6 1.5.9 2.46.9.787 0 1.44-.18 1.96-.54a2.946 2.946 0 0 0 1.12-1.48h1.96a4.76 4.76 0 0 1-1.76 2.58c-.88.653-1.973.98-3.28.98-1.04 0-1.973-.233-2.8-.7a4.992 4.992 0 0 1-1.92-1.98c-.466-.867-.7-1.867-.7-3s.227-2.127.68-2.98a4.727 4.727 0 0 1 1.9-1.96c.827-.467 1.774-.7 2.84-.7 1.04 0 1.96.227 2.76.68.8.453 1.414 1.08 1.84 1.88.44.787.66 1.68.66 2.68zm-1.88-.38c0-.693-.153-1.287-.46-1.78a2.895 2.895 0 0 0-1.26-1.14c-.52-.267-1.1-.4-1.74-.4-.92 0-1.706.293-2.36.88-.64.587-1.006 1.4-1.1 2.44h6.92zm8.803 6.28-2.6-4.08-2.5 4.08h-1.9l3.54-5.44-3.54-5.52h2.06l2.6 4.06 2.48-4.06h1.9l-3.52 5.42 3.54 5.54h-2.06zm4.87-9.46v6.46c0 .533.114.913.34 1.14.227.213.62.32 1.18.32h1.34v1.54h-1.64c-1.013 0-1.773-.233-2.28-.7-.506-.467-.76-1.233-.76-2.3v-6.46h-1.42v-1.5h1.42V.457h1.82v2.76h2.86v1.5h-2.86zm10.517 3.78.1-.4h.9c.987 0 1.82-.133 2.5-.4.68-.28 1.227-.667 1.64-1.16.414-.493.714-1.06.9-1.7.187-.653.28-1.353.28-2.1 0-.787-.2-1.367-.6-1.74-.386-.387-1.033-.58-1.94-.58-.386 0-.7.053-.94.16-.226.093-.413.267-.56.52-.133.24-.26.587-.38 1.04l-2.64 9.92a5.352 5.352 0 0 0-.18 1c-.013.24.074.42.26.54.2.107.567.167 1.1.18l-.08.4c-.306-.027-.68-.04-1.12-.04a52.056 52.056 0 0 0-2.84 0c-.466 0-.84.013-1.12.04l.08-.4c.454-.027.807-.08 1.06-.16.254-.08.454-.24.6-.48.147-.24.28-.6.4-1.08l2.64-9.92c.12-.427.174-.76.16-1 0-.253-.1-.433-.3-.54-.2-.12-.546-.18-1.04-.18l.1-.4a54.569 54.569 0 0 0 3.9.04c.494-.013.987-.02 1.48-.02 1.347 0 2.347.28 3 .84.654.547.98 1.273.98 2.18 0 1.04-.32 1.973-.96 2.8-.626.813-1.506 1.46-2.64 1.94-1.133.467-2.446.7-3.94.7h-.8zm8.962 5.32c.32 0 .687-.2 1.1-.6.414-.413.834-.967 1.26-1.66.427-.693.82-1.48 1.18-2.36.36-.88.647-1.793.86-2.74l-.34 2.16c-.506 1.413-1.013 2.553-1.52 3.42-.506.853-1.02 1.473-1.54 1.86-.52.373-1.046.56-1.58.56-.626 0-1.1-.227-1.42-.68-.306-.453-.46-1.033-.46-1.74 0-.64.107-1.333.32-2.08.214-.76.507-1.513.88-2.26.387-.747.827-1.427 1.32-2.04a6.902 6.902 0 0 1 1.6-1.48c.587-.373 1.18-.56 1.78-.56.467 0 .82.233 1.06.7.254.453.307 1.093.16 1.92l-.22.12c.094-.707.047-1.273-.14-1.7-.186-.44-.493-.66-.92-.66-.346 0-.713.173-1.1.52-.373.333-.74.793-1.1 1.38-.346.573-.666 1.22-.96 1.94-.28.72-.506 1.467-.68 2.24-.16.76-.24 1.493-.24 2.2 0 .573.06.973.18 1.2.134.227.307.34.52.34zm5.04-9.92c.32-.013.64-.04.96-.08.32-.04.614-.107.88-.2l-2.5 8.84c-.026.12-.066.28-.12.48-.04.187-.04.36 0 .52.054.16.194.24.42.24.267 0 .527-.147.78-.44.254-.293.507-.827.76-1.6l.24-.74h.38l-.5 1.46c-.186.533-.413.953-.68 1.26-.253.293-.52.5-.8.62a1.9 1.9 0 0 1-.82.2c-.52 0-.886-.173-1.1-.52-.173-.307-.22-.66-.14-1.06.08-.413.174-.827.28-1.24l1.96-7.74zm5.91 5.78.5.02c-.48.267-.927.513-1.34.74-.4.213-.728.413-.98.6-.254.187-.38.367-.38.54 0 .133.093.26.28.38.186.107.492.213.92.32l1.46.38a7.13 7.13 0 0 1 1.14.38c.346.133.62.307.82.52.2.213.3.493.3.84 0 .333-.114.707-.34 1.12-.214.427-.554.833-1.02 1.22-.454.387-1.047.707-1.78.96-.734.253-1.62.38-2.66.38-.694 0-1.274-.067-1.74-.2-.48-.12-.834-.293-1.06-.52-.24-.227-.36-.487-.36-.78 0-.213.06-.44.18-.68.12-.227.3-.453.54-.68.226-.213.52-.42.88-.62.346-.187.76-.347 1.24-.48l.14.3c-.494.253-.834.54-1.02.86-.188.32-.28.64-.28.96 0 .533.186.913.56 1.14.372.24.832.36 1.38.36.44 0 .893-.073 1.36-.22.466-.133.9-.32 1.3-.56.4-.227.72-.493.96-.8.24-.307.36-.627.36-.96 0-.2-.067-.333-.2-.4-.12-.067-.328-.133-.62-.2l-3.06-.78c-.32-.08-.58-.213-.78-.4-.2-.2-.3-.467-.3-.8 0-.267.093-.54.28-.82.186-.28.54-.587 1.06-.92.52-.347 1.273-.747 2.26-1.2zm1.02-5.7c-.428 0-.788.127-1.08.38-.294.24-.54.553-.74.94a5.967 5.967 0 0 0-.44 1.18c-.094.413-.16.793-.2 1.14-.04.333-.06.58-.06.74 0 .427.093.733.28.92.2.187.46.28.78.28.506 0 .913-.153 1.22-.46a3.07 3.07 0 0 0 .74-1.14c.172-.453.286-.907.34-1.36.066-.453.1-.833.1-1.14 0-.453-.06-.813-.18-1.08-.12-.267-.374-.4-.76-.4zm.08-.36c.786 0 1.42.18 1.9.54.493.347.74.913.74 1.7 0 .64-.18 1.273-.54 1.9a4.47 4.47 0 0 1-1.52 1.56c-.654.4-1.428.6-2.32.6-.734 0-1.354-.173-1.86-.52-.494-.36-.74-.913-.74-1.66 0-.36.072-.773.22-1.24.16-.48.406-.933.74-1.36.332-.44.773-.8 1.32-1.08.56-.293 1.246-.44 2.06-.44zm1.42 1.04-.36-.14c.186-.453.506-.853.96-1.2.453-.347.926-.52 1.42-.52.346 0 .626.1.84.3.212.187.32.487.32.9 0 .373-.094.647-.28.82-.188.173-.388.26-.6.26-.214 0-.42-.067-.62-.2-.188-.147-.3-.373-.34-.68-.04-.307.046-.7.26-1.18l.26.06c-.56.213-.96.44-1.2.68-.24.227-.46.527-.66.9zm2.623 4.98c.747-.253 1.42-.5 2.02-.74.614-.253 1.1-.52 1.46-.8a4.29 4.29 0 0 0 1.14-1.4 3.89 3.89 0 0 0 .42-1.8c0-.387-.026-.633-.08-.74-.053-.107-.133-.16-.24-.16-.333 0-.693.147-1.08.44-.386.293-.766.7-1.14 1.22-.373.507-.72 1.087-1.04 1.74a11.484 11.484 0 0 0-.74 2.1 8.886 8.886 0 0 0-.28 2.2c0 .68.127 1.173.38 1.48.254.293.587.44 1 .44.48 0 .987-.147 1.52-.44.534-.293 1.054-.813 1.56-1.56l.32.16a6.19 6.19 0 0 1-1 1.28 5.55 5.55 0 0 1-1.4 1.02 3.574 3.574 0 0 1-1.62.38c-.533 0-1-.107-1.4-.32a2.161 2.161 0 0 1-.92-.94c-.213-.427-.32-.947-.32-1.56 0-.573.107-1.213.32-1.92.214-.72.514-1.433.9-2.14.4-.72.874-1.38 1.42-1.98a6.882 6.882 0 0 1 1.82-1.44c.667-.36 1.38-.54 2.14-.54.414 0 .76.113 1.04.34.294.213.44.54.44.98 0 .533-.16 1.033-.48 1.5-.306.453-.72.873-1.24 1.26-.506.373-1.06.707-1.66 1-.6.293-1.186.547-1.76.76-.573.213-1.08.387-1.52.52l.02-.34z" fill="#1B4444"/></svg>
